X: 11939
T: Emyvale, The
R: reel
M: 4/4
K: Dmixolydian
|:c|AD D/D/D AGEF|GEcE dEcE|AD F/E/D AGEF|GEcE EDD:|
B|AGAB c2 Bc|AGAB cGEG|AGAB c2 Bc|AGcG EDDB|
AGAB c2 A/B/c|dcAc d2 cd|ecdB cBAG|E/F/G cG EDD||

